**kern
*staff1
!!pagebreak:original
*I"P1
*clefG2
*k[]
*M3/4
8ee\L
8aa\J
=1
4dd#\
4r
8ee\L
8aa\J
=2
4dd#\
4r
8ee\L
8aa\J
=3
eeq/
4ddn\
4r
4cc\
=4
2g/
8cc\L
8ee\J
=5
4g/
8cc\L
8ee\J
4g/
=6
8cc\L
8ee\J
4g#/
8cc\L
8ee\J
=7
4f/
8aa\
8r
4aa\
=8
2aa\
=
*-
